docs/assets/icons/ip-network.svg

<?xml version="1.0" encoding="UTF-8" standalone="no"?>
<svg
   viewBox="0 0 24 24"
   version="1.1"
   id="svg1"
   sodipodi:docname="ip-network.svg"
   inkscape:version="1.4.3 (0d15f75042, 2025-12-25)"
   xmlns:inkscape="http://www.inkscape.org/namespaces/inkscape"
   xmlns:sodipodi="http://sodipodi.sourceforge.net/DTD/sodipodi-0.dtd"
   xmlns="http://www.w3.org/2000/svg"
   xmlns:svg="http://www.w3.org/2000/svg">
  <defs
     id="defs1">
    <filter
       style="color-interpolation-filters:sRGB;"
       inkscape:label="Drop Shadow"
       id="filter2"
       x="-0.032519409"
       y="-0.032519409"
       width="1.0876217"
       height="1.0876217">
      <feFlood
         result="flood"
         in="SourceGraphic"
         flood-opacity="0.498039"
         flood-color="rgb(0,0,0)"
         id="feFlood1" />
      <feGaussianBlur
         result="blur"
         in="SourceGraphic"
         stdDeviation="0.300000"
         id="feGaussianBlur1" />
      <feOffset
         result="offset"
         in="blur"
         dx="0.500000"
         dy="0.500000"
         id="feOffset1" />
      <feComposite
         result="comp1"
         operator="in"
         in="flood"
         in2="offset"
         id="feComposite1" />
      <feComposite
         result="comp2"
         operator="over"
         in="SourceGraphic"
         in2="comp1"
         id="feComposite2" />
    </filter>
  </defs>
  <sodipodi:namedview
     id="namedview1"
     pagecolor="#c8c8c8"
     bordercolor="#000000"
     borderopacity="0.07843137"
     inkscape:showpageshadow="true"
     inkscape:pageopacity="0.0"
     inkscape:pagecheckerboard="true"
     inkscape:deskcolor="#818181"
     inkscape:zoom="22.627417"
     inkscape:cx="8.0212425"
     inkscape:cy="13.258252"
     inkscape:window-width="2560"
     inkscape:window-height="1368"
     inkscape:window-x="0"
     inkscape:window-y="0"
     inkscape:window-maximized="1"
     inkscape:current-layer="g1"
     showborder="true"
     borderlayer="true"
     labelstyle="default"
     inkscape:antialias-rendering="true"
     inkscape:clip-to-page="false" />
  <g
     id="g1"
     transform="matrix(1.029941,0,0,1.029941,-0.35929174,-0.35929174)">
    <path
       id="path1"
       style="display:inline;fill:#4cae4f;fill-opacity:1;stroke:none;stroke-width:0.4;stroke-dasharray:none;stroke-opacity:1"
       d="m 10.892578,16.427734 v 2.214844 h 2.214844 V 16.427734 Z M 0.9296875,19.75 v 2.212891 h 7.75 V 19.75 Z m 14.3906245,0 v 2.212891 h 7.75 V 19.75 Z" />
    <path
       id="path2"
       style="display:inline;fill:#0091eb;fill-opacity:1;stroke:#4cae4f;stroke-width:0.58255764;stroke-linecap:round;stroke-linejoin:round;stroke-dasharray:none;stroke-opacity:1;paint-order:normal"
       d="M 6.4648438,0.9296875 C 5.2420493,0.92968756 4.25,1.9217369 4.25,3.1445312 V 14.214844 c 1e-7,1.222794 0.9920495,2.21289 2.2148438,2.21289 H 17.535156 c 1.222794,0 2.214844,-0.990096 2.214844,-2.21289 V 3.1445312 c 0,-1.2227942 -0.99205,-2.21484359 -2.214844,-2.2148437 z m 0,2.2148437 H 8.6796875 V 14.214844 H 6.4648438 Z m 4.4277342,0 h 4.427734 c 1.222795,1e-7 2.214844,0.9900963 2.214844,2.2128907 v 2.2148437 c 0,1.2227944 -0.992049,2.2128906 -2.214844,2.2128906 h -2.21289 v 4.4296878 h -2.214844 z m 2.214844,2.2128907 v 2.2148437 h 2.21289 V 5.3574219 Z" />
    <path
       id="path4"
       style="display:inline;fill:#0091eb;fill-opacity:0.988235;stroke:none;stroke-width:0.4;stroke-dasharray:none;stroke-opacity:1"
       d="m 9.7851562,18.642578 c -0.611397,0 -1.1054684,0.496025 -1.1054687,1.107422 v 2.212891 c -2e-7,0.611397 0.4940714,1.107421 1.1054687,1.107421 h 4.4296878 c 0.611398,0 1.105468,-0.496023 1.105468,-1.107421 V 19.75 c 1e-6,-0.611397 -0.494071,-1.107422 -1.105468,-1.107422 h -1.107422 -2.214844 z" />
  </g>
</svg>

<?xml version="1.0" encoding="UTF-8"?>
<svg version="1.1" viewBox="0 0 24 24" xmlns="http://www.w3.org/2000/svg"><g transform="matrix(1.0299 0 0 1.0299 -.35929 -.25929)"><path d="m10.893 16.428v2.2148h2.2148v-2.2148zm-9.9629 3.3223v2.2129h7.75v-2.2129zm14.391 0v2.2129h7.75v-2.2129z" fill="#4cae4f"/><path d="m6.4648.92969c-1.2228 6e-8-2.2148.99205-2.2148 2.2148v11.07c1e-7 1.2228.99205 2.2129 2.2148 2.2129h11.07c1.2228 0 2.2148-.9901 2.2148-2.2129v-11.07c0-1.2228-.99205-2.2148-2.2148-2.2148zm0 2.2148h2.2148v11.07h-2.2148zm4.4277 0h4.4277c1.2228 1e-7 2.2148.9901 2.2148 2.2129v2.2148c0 1.2228-.99205 2.2129-2.2148 2.2129h-2.2129v4.4297h-2.2148zm2.2148 2.2129v2.2148h2.2129v-2.2148z" fill="#0091eb" stroke="#4cae4f" stroke-linecap="round" stroke-linejoin="round" stroke-width=".38837" style="paint-order:normal"/><path d="m9.7852 18.643c-.6114 0-1.1055.49602-1.1055 1.1074v2.2129c-2e-7.6114.49407 1.1074 1.1055 1.1074h4.4297c.6114 0 1.1055-.49602 1.1055-1.1074v-2.2129c1e-6-.6114-.49407-1.1074-1.1055-1.1074h-3.3223z" fill="#0091eb" fill-opacity=".98824"/></g></svg>
